; generated by PrusaSlicer 2.5.0+MacOS-x64 on 2022-12-22 at 10:09:37 UTC


;
;
; 

; external perimeters extrusion width = 0.45mm
; perimeters extrusion width = 0.45mm
; infill extrusion width = 0.45mm
; solid infill extrusion width = 0.45mm
; top infill extrusion width = 0.40mm
; support material extrusion width = 0.35mm
; first layer extrusion width = 0.42mm

; external perimeters extrusion width = 0.45mm
; perimeters extrusion width = 0.45mm
; infill extrusion width = 0.45mm
; solid infill extrusion width = 0.45mm
; top infill extrusion width = 0.40mm
; support material extrusion width = 0.35mm
; first layer extrusion width = 0.42mm

M73 P0 R89
M73 Q0 S90
M201 X1000 Y1000 Z200 E5000 ; sets maximum accelerations, mm/sec^2
M203 X200 Y200 Z12 E120 ; sets maximum feedrates, mm / sec
M204 P1250 R1250 T1250 ; sets acceleration (P, T) and retract acceleration (R), mm/sec^2
M205 X8.00 Y8.00 Z0.40 E4.50 ; sets the jerk limits, mm/sec
M205 S0 T0 ; sets the minimum extruding and travel feed rate, mm/sec
;TYPE:Custom
M862.3 P "MK3S" ; printer model check
M862.1 P0.4 ; nozzle diameter check
M115 U3.11.0 ; tell printer latest fw version
G90 ; use absolute coordinates
M83 ; extruder relative mode
M104 S240 ; set extruder temp
M140 S85 ; set bed temp
M190 S85 ; wait for bed temp
M109 S240 ; wait for extruder temp
G28 W ; home all without mesh bed level
G80 ; mesh bed leveling

G1 Z0.2 F720
G1 Y-3 F1000 ; go outside print area
G92 E0
G1 X60 E9 F1000 ; intro line
G1 X100 E12.5 F1000 ; intro line

G92 E0
M221 S95

; Don't change E values below. Excessive value can damage the printer.
M907 E430 ; set extruder motor current
G21 ; set units to millimeters
G90 ; use absolute coordinates
M83 ; use relative distances for extrusion
M900 K0.08 ; Filament gcode LA 1.5
M900 K45 ; Filament gcode LA 1.0
M106 S76.5
;LAYER_CHANGE
;Z:0.2
;HEIGHT:0.2
;BEFORE_LAYER_CHANGE
G92 E0.0
;0.2


G1 E-1 F2700
G1 Z.2 F720
;AFTER_LAYER_CHANGE
;0.2
G1 Z.4
G1 X85.386 Y77.718 F10800
G1 Z.2 F720
G1 E1 F2700
M204 S800
;TYPE:Skirt/Brim
;WIDTH:0.42
G1 F1200
G1 X86.004 Y77.077 E.02792
G1 X86.694 Y76.514 E.02792
G1 X87.447 Y76.038 E.02792
G1 X88.52 Y75.555 E.0369
G1 X89.969 Y75.198 E.04679
G1 X91 Y75.123 E.03242
G1 X159.155 Y75.128 E2.13697
G1 X160.758 Y75.339 E.05067
G1 X161.965 Y75.749 E.03996
G1 X162.821 Y76.193 E.03025
G1 X164.103 Y77.177 E.05067
G1 X164.943 Y78.136 E.03996
G1 X165.462 Y78.949 E.03024
G1 X166.081 Y80.442 E.05067
G1 X166.329 Y81.692 E.03996
G1 X166.372 Y127.655 E1.44116
G1 X166.161 Y129.258 E.05067
G1 X165.87 Y130.178 E.03024
G1 X165.462 Y131.051 E.03024
G1 X164.744 Y132.122 E.04043
G1 X164.103 Y132.823 E.02977
G1 X163.364 Y133.443 E.03024
G1 X162.551 Y133.962 E.03024
G1 X161.058 Y134.581 E.05067
G1 X160.116 Y134.789 E.03024
G1 X159.005 Y134.877 E.03494
G1 X91 Y134.877 E2.13226
G1 X89.375 Y134.693 E.05128
M73 Q0 S89
G1 X88.52 Y134.445 E.02792
G1 X87.701 Y134.095 E.02792
G1 X86.93 Y133.649 E.02792
G1 X86.218 Y133.114 E.02792
G1 X85.577 Y132.496 E.02792
G1 X85.014 Y131.806 E.02792
G1 X84.538 Y131.053 E.02792
G1 X84.055 Y129.98 E.0369
G1 X83.698 Y128.531 E.04679
G1 X83.623 Y127.5 E.03242
G1 X83.627 Y82.357 E1.41544
G1 X83.807 Y80.875 E.0468
G1 X84.055 Y80.02 E.02792
G1 X84.405 Y79.201 E.02792
G1 X84.851 Y78.43 E.02792
G1 X85.35 Y77.766 E.02604
M204 S1000
; printing object Case.stl id:0 copy 0
;WIPE_START
G1 F8640
G1 X86.004 Y77.077 E-.28205
G1 X86.694 Y76.514 E-.26436
G1 X87.447 Y76.038 E-.26436
G1 X87.874 Y75.846 E-.13923
;WIPE_END
G1 E-.05 F2700
G1 Z.4 F720
G1 X128.932 Y128.59 F10800
G1 Z.2 F720
G1 E1 F2700
M204 S800
;TYPE:Perimeter
;WIDTH:0.419999
G1 F1200
G1 X128.825 Y128.05 E.01727
G1 X128.787 Y127.474 E.01808
G1 X128.787 Y82.526 E1.40933
G1 X128.825 Y81.95 E.01808
G1 X128.932 Y81.41 E.01727
G1 X129.109 Y80.888 E.01727
G1 X129.353 Y80.394 E.01727
G1 X129.659 Y79.936 E.01727
G1 X130.022 Y79.522 E.01727
G1 X130.436 Y79.159 E.01727
G1 X130.894 Y78.853 E.01727
G1 X131.388 Y78.609 E.01727
G1 X131.91 Y78.432 E.01727
G1 X132.45 Y78.325 E.01727
G1 X133.026 Y78.287 E.01808
G1 X158.974 Y78.287 E.8136
G1 X159.55 Y78.325 E.01808
G1 X160.09 Y78.432 E.01727
G1 X160.612 Y78.609 E.01727
G1 X161.106 Y78.853 E.01727
G1 X161.564 Y79.159 E.01727
G1 X161.978 Y79.522 E.01727
G1 X162.341 Y79.936 E.01727
G1 X162.647 Y80.394 E.01727
G1 X162.891 Y80.888 E.01727
G1 X163.068 Y81.41 E.01727
G1 X163.175 Y81.95 E.01727
G1 X163.213 Y82.526 E.01808
G1 X163.213 Y127.474 E1.40933
G1 X163.175 Y128.05 E.01808
G1 X163.068 Y128.59 E.01727
G1 X162.891 Y129.112 E.01727
G1 X162.647 Y129.606 E.01727
G1 X162.341 Y130.064 E.01727
G1 X161.978 Y130.478 E.01727
G1 X161.564 Y130.841 E.01727
G1 X161.106 Y131.147 E.01727
G1 X160.612 Y131.391 E.01727
G1 X160.09 Y131.568 E.01727
G1 X159.55 Y131.675 E.01727
G1 X158.974 Y131.713 E.01808
G1 X133.026 Y131.713 E.8136
G1 X132.45 Y131.675 E.01808
M73 P0 R88
G1 X131.91 Y131.568 E.01727
G1 X131.388 Y131.391 E.01727
G1 X130.894 Y131.147 E.01727
G1 X130.436 Y130.841 E.01727
G1 X130.022 Y130.478 E.01727
G1 X129.659 Y130.064 E.01727
G1 X129.353 Y129.606 E.01727
G1 X129.109 Y129.112 E.01727
G1 X128.952 Y128.647 E.01539
M204 S1000
G1 X128.569 Y128.693 F10800
M204 S800
;TYPE:External perimeter
G1 F1200
G1 X128.45 Y128.099 E.01898
G1 X128.41 Y127.487 E.01924
G1 X128.41 Y82.513 E1.4101
G1 X128.45 Y81.901 E.01924
G1 X128.567 Y81.312 E.01882
G1 X128.76 Y80.744 E.01882
G1 X129.026 Y80.205 E.01882
G1 X129.359 Y79.706 E.01882
G1 X129.755 Y79.255 E.01882
G1 X130.206 Y78.859 E.01882
G1 X130.705 Y78.526 E.01882
G1 X131.244 Y78.26 E.01882
G1 X131.812 Y78.067 E.01882
G1 X132.401 Y77.95 E.01882
G1 X133.013 Y77.91 E.01924
G1 X158.987 Y77.91 E.81437
G1 X159.599 Y77.95 E.01924
G1 X160.188 Y78.067 E.01882
G1 X160.756 Y78.26 E.01882
G1 X161.295 Y78.526 E.01882
G1 X161.794 Y78.859 E.01882
G1 X162.245 Y79.255 E.01882
G1 X162.641 Y79.706 E.01882
G1 X162.974 Y80.205 E.01882
G1 X163.24 Y80.744 E.01882
G1 X163.433 Y81.312 E.01882
G1 X163.55 Y81.901 E.01882
G1 X163.59 Y82.513 E.01924
G1 X163.59 Y127.487 E1.4101
G1 X163.55 Y128.099 E.01924
G1 X163.433 Y128.688 E.01882
G1 X163.24 Y129.256 E.01882
G1 X162.974 Y129.795 E.01882
G1 X162.641 Y130.294 E.01882
G1 X162.245 Y130.745 E.01882
G1 X161.794 Y131.141 E.01882
G1 X161.295 Y131.474 E.01882
G1 X160.756 Y131.74 E.01882
G1 X160.188 Y131.933 E.01882
G1 X159.599 Y132.05 E.01882
G1 X158.987 Y132.09 E.01924
G1 X133.013 Y132.09 E.81437
G1 X132.401 Y132.05 E.01924
G1 X131.812 Y131.933 E.01882
G1 X131.244 Y131.74 E.01882
G1 X130.705 Y131.474 E.01882
G1 X130.206 Y131.141 E.01882
G1 X129.755 Y130.745 E.01882
G1 X129.359 Y130.294 E.01882
G1 X129.026 Y129.795 E.01882
G1 X128.76 Y129.256 E.01882
G1 X128.588 Y128.75 E.01678
M204 S1000
G1 X128.852 Y128.41 F10800
;WIPE_START
G1 F8640
G1 X128.45 Y128.099 E-.19743
G1 X128.41 Y127.487 E-.1822
G1 X128.41 Y125.565 E-.57037
;WIPE_END
G1 E-.05 F2700
G1 Z.4 F720
G1 X162.592 Y80.538 F10800
G1 Z.2 F720
G1 E1 F2700
M204 S800
;TYPE:Solid infill
;WIDTH:0.422388
G1 F1200
G1 X161.768 Y79.714 E.03678
G1 X161.391 Y79.384 E.01581
G1 X160.964 Y79.098 E.01621
G1 X160.503 Y78.871 E.01621
G1 X160.329 Y78.812 E.0058
G1 X162.688 Y81.171 E.10526
G1 X162.794 Y81.483 E.01041
G1 X162.876 Y81.896 E.01326
G1 X159.604 Y78.624 E.14599
G1 X159.022 Y78.579 E.01841
G1 X162.927 Y82.483 E.17422
G1 X162.93 Y83.023 E.01704
G1 X158.486 Y78.579 E.19832
G1 X157.949 Y78.578 E.01694
G1 X162.93 Y83.56 E.22228
G1 X162.93 Y84.096 E.01693
G1 X157.412 Y78.578 E.24623
G1 X156.875 Y78.578 E.01694
G1 X162.93 Y84.633 E.27019
G1 X162.93 Y85.17 E.01693
G1 X156.338 Y78.578 E.29414
G1 X155.801 Y78.578 E.01694
G1 X162.93 Y85.706 E.3181
G1 X162.93 Y86.243 E.01693
G1 X155.265 Y78.578 E.34205
G1 X154.728 Y78.577 E.01694
G1 X162.93 Y86.78 E.36601
G1 X162.93 Y87.316 E.01693
G1 X154.191 Y78.577 E.38996
G1 X153.654 Y78.577 E.01694
G1 X162.93 Y87.853 E.41392
G1 X162.93 Y88.39 E.01693
G1 X153.117 Y78.577 E.43787
G1 X152.58 Y78.577 E.01694
G1 X162.93 Y88.926 E.46183
G1 X162.93 Y89.463 E.01693
G1 X152.044 Y78.576 E.48578
G1 X151.507 Y78.576 E.01694
G1 X162.93 Y90 E.50974
G1 X162.93 Y90.536 E.01693
G1 X150.97 Y78.576 E.53369
G1 X150.433 Y78.576 E.01694
G1 X162.93 Y91.073 E.55765
G1 X162.93 Y91.61 E.01693
G1 X149.896 Y78.576 E.5816
G1 X149.359 Y78.576 E.01694
G1 X162.93 Y92.146 E.60556
G1 X162.93 Y92.683 E.01693
G1 X148.823 Y78.575 E.62951
G1 X148.286 Y78.575 E.01694
G1 X162.93 Y93.219 E.65347
G1 X162.93 Y93.756 E.01693
M73 P1 R88
M73 Q1 S89
G1 X147.749 Y78.575 E.67742
G1 X147.212 Y78.575 E.01694
G1 X162.93 Y94.293 E.70138
G1 X162.93 Y94.829 E.01693
G1 X146.675 Y78.575 E.72533
G1 X146.138 Y78.574 E.01694
G1 X162.93 Y95.366 E.74929
G1 X162.93 Y95.903 E.01693
G1 X145.602 Y78.574 E.77324
G1 X145.065 Y78.574 E.01694
G1 X162.93 Y96.439 E.7972
G1 X162.93 Y96.976 E.01693
G1 X144.528 Y78.574 E.82115
G1 X143.991 Y78.574 E.01694
G1 X162.93 Y97.513 E.84511
G1 X162.93 Y98.049 E.01693
G1 X143.454 Y78.573 E.86906
G1 X142.917 Y78.573 E.01694
G1 X162.93 Y98.586 E.89302
G1 X162.93 Y99.123 E.01693
G1 X142.381 Y78.573 E.91697
G1 X141.844 Y78.573 E.01694
G1 X162.93 Y99.659 E.94093
G1 X162.93 Y100.196 E.01693
G1 X141.307 Y78.573 E.96488
G1 X140.77 Y78.573 E.01694
G1 X162.93 Y100.733 E.98883
G1 X162.93 Y101.269 E.01693
G1 X140.233 Y78.572 E1.01279
G1 X139.696 Y78.572 E.01694
G1 X162.93 Y101.806 E1.03674
G1 X162.93 Y102.342 E.01693
G1 X139.16 Y78.572 E1.0607
G1 X138.623 Y78.572 E.01694
M73 Q1 S88
G1 X162.93 Y102.879 E1.08465
G1 X162.93 Y103.416 E.01693
G1 X138.086 Y78.572 E1.10861
G1 X137.549 Y78.571 E.01694
G1 X162.93 Y103.952 E1.13256
G1 X162.93 Y104.489 E.01693
G1 X137.012 Y78.571 E1.15652
G1 X136.475 Y78.571 E.01694
G1 X162.93 Y105.026 E1.18047
G1 X162.93 Y105.562 E.01693
G1 X135.939 Y78.571 E1.20443
G1 X135.402 Y78.571 E.01694
M73 P1 R87
G1 X162.93 Y106.099 E1.22838
G1 X162.93 Y106.636 E.01693
G1 X134.865 Y78.571 E1.25234
G1 X134.328 Y78.57 E.01694
G1 X162.93 Y107.172 E1.27629
G1 X162.93 Y107.709 E.01693
G1 X133.791 Y78.57 E1.30025
G1 X133.254 Y78.57 E.01694
G1 X162.93 Y108.246 E1.3242
G1 X162.93 Y108.782 E.01693
G1 X132.737 Y78.589 E1.34728
G1 X132.487 Y78.606 E.0079
G1 X132.262 Y78.651 E.00725
G1 X162.93 Y109.319 E1.3685
G1 X162.93 Y109.856 E.01693
G1 X131.832 Y78.757 E1.38768
G1 X131.438 Y78.9 E.01322
G1 X162.93 Y110.392 E1.40525
G1 X162.93 Y110.929 E.01693
M73 P2 R87
M73 Q2 S88
G1 X131.079 Y79.077 E1.42129
G1 X130.753 Y79.288 E.01225
G1 X162.93 Y111.466 E1.43585
G1 X162.93 Y112.002 E.01693
G1 X130.451 Y79.523 E1.44932
G1 X130.172 Y79.781 E.01198
G1 X162.93 Y112.539 E1.46176
G1 X162.93 Y113.075 E.01693
G1 X129.921 Y80.066 E1.47295
G1 X129.701 Y80.383 E.01216
G1 X162.93 Y113.612 E1.48278
G1 X162.93 Y114.149 E.01693
G1 X129.506 Y80.724 E1.49149
G1 X129.338 Y81.094 E.01279
G1 X162.93 Y114.685 E1.49895
G1 X162.93 Y115.222 E.01693
G1 X129.204 Y81.496 E1.50496
G1 X129.115 Y81.943 E.0144
G1 X162.93 Y115.759 E1.50894
G1 X162.93 Y116.295 E.01693
G1 X129.076 Y82.441 E1.51066
G1 X129.07 Y82.972 E.01674
G1 X162.93 Y116.832 E1.51093
G1 X162.93 Y117.369 E.01693
M73 Q2 S87
G1 X129.07 Y83.508 E1.51093
G1 X129.07 Y84.045 E.01693
G1 X162.93 Y117.905 E1.51093
G1 X162.93 Y118.442 E.01693
G1 X129.07 Y84.582 E1.51093
G1 X129.07 Y85.118 E.01693
G1 X162.93 Y118.979 E1.51093
G1 X162.93 Y119.515 E.01693
G1 X129.07 Y85.655 E1.51093
G1 X129.07 Y86.192 E.01693
M73 P2 R86
G1 X162.93 Y120.052 E1.51093
G1 X162.93 Y120.589 E.01693
G1 X129.07 Y86.728 E1.51093
G1 X129.07 Y87.265 E.01693
G1 X162.93 Y121.125 E1.51093
G1 X162.93 Y121.662 E.01693
G1 X129.07 Y87.802 E1.51093
G1 X129.07 Y88.338 E.01693
G1 X162.93 Y122.198 E1.51093
G1 X162.93 Y122.735 E.01693
M73 P3 R86
G1 X129.07 Y88.875 E1.51093
G1 X129.07 Y89.412 E.01693
M73 Q3 S87
G1 X162.93 Y123.272 E1.51093
G1 X162.93 Y123.808 E.01693
G1 X129.07 Y89.948 E1.51093
G1 X129.07 Y90.485 E.01693
G1 X162.93 Y124.345 E1.51093
G1 X162.93 Y124.882 E.01693
G1 X129.07 Y91.021 E1.51093
G1 X129.07 Y91.558 E.01693
G1 X162.93 Y125.418 E1.51093
G1 X162.93 Y125.955 E.01693
G1 X129.07 Y92.095 E1.51093
G1 X129.07 Y92.631 E.01693
G1 X162.93 Y126.492 E1.51093
G1 X162.93 Y127.028 E.01693
G1 X129.07 Y93.168 E1.51093
G1 X129.07 Y93.705 E.01693
G1 X162.924 Y127.559 E1.51066
G1 X162.885 Y128.057 E.01576
G1 X129.07 Y94.241 E1.50894
G1 X129.07 Y94.778 E.01693
G1 X162.796 Y128.505 E1.50496
G1 X162.662 Y128.906 E.01338
G1 X129.07 Y95.315 E1.49895
G1 X129.07 Y95.851 E.01693
G1 X162.494 Y129.276 E1.49149
G1 X162.402 Y129.464 E.00662
G1 X162.299 Y129.617 E.00582
G1 X129.07 Y96.388 E1.48277
G1 X129.07 Y96.925 E.01693
M73 Q3 S86
G1 X162.079 Y129.934 E1.47295
G1 X161.828 Y130.22 E.012
G1 X129.07 Y97.461 E1.46176
G1 X129.07 Y97.998 E.01693
G1 X161.549 Y130.477 E1.44932
G1 X161.247 Y130.712 E.01207
G1 X129.07 Y98.535 E1.43584
G1 X129.07 Y99.071 E.01693
G1 X160.921 Y130.923 E1.42129
G1 X160.562 Y131.1 E.01264
M73 P3 R85
G1 X129.07 Y99.608 E1.40525
G1 X129.07 Y100.145 E.01693
G1 X160.168 Y131.243 E1.38768
G1 X160.017 Y131.294 E.00504
G1 X159.738 Y131.349 E.00896
G1 X129.07 Y100.681 E1.36849
G1 X129.07 Y101.218 E.01693
M73 P4 R85
M73 Q4 S86
G1 X159.263 Y131.411 E1.34728
G1 X158.746 Y131.43 E.01633
G1 X129.07 Y101.754 E1.3242
G1 X129.07 Y102.291 E.01693
G1 X158.209 Y131.43 E1.30026
G1 X157.672 Y131.43 E.01693
G1 X129.07 Y102.828 E1.27631
G1 X129.07 Y103.364 E.01693
G1 X157.136 Y131.43 E1.25236
G1 X156.599 Y131.43 E.01693
G1 X129.07 Y103.901 E1.22842
G1 X129.07 Y104.438 E.01693
G1 X156.062 Y131.43 E1.20447
G1 X155.526 Y131.43 E.01693
G1 X129.07 Y104.974 E1.18052
G1 X129.07 Y105.511 E.01693
G1 X154.989 Y131.43 E1.15658
G1 X154.452 Y131.43 E.01693
G1 X129.07 Y106.048 E1.13263
G1 X129.07 Y106.584 E.01693
G1 X153.916 Y131.43 E1.10868
G1 X153.379 Y131.43 E.01693
G1 X129.07 Y107.121 E1.08474
G1 X129.07 Y107.658 E.01693
G1 X152.842 Y131.43 E1.06079
G1 X152.306 Y131.43 E.01693
G1 X129.07 Y108.194 E1.03684
G1 X129.07 Y108.731 E.01693
G1 X151.769 Y131.43 E1.0129
G1 X151.232 Y131.43 E.01693
G1 X129.07 Y109.268 E.98895
G1 X129.07 Y109.804 E.01693
G1 X150.696 Y131.43 E.965
G1 X150.159 Y131.43 E.01693
G1 X129.07 Y110.341 E.94106
G1 X129.07 Y110.877 E.01693
G1 X149.623 Y131.43 E.91711
G1 X149.086 Y131.43 E.01693
G1 X129.07 Y111.414 E.89316
G1 X129.07 Y111.951 E.01693
G1 X148.549 Y131.43 E.86922
G1 X148.013 Y131.43 E.01693
G1 X129.07 Y112.487 E.84527
G1 X129.07 Y113.024 E.01693
G1 X147.476 Y131.43 E.82132
G1 X146.939 Y131.43 E.01693
M73 Q4 S85
G1 X129.07 Y113.561 E.79738
G1 X129.07 Y114.097 E.01693
G1 X146.403 Y131.43 E.77343
G1 X145.866 Y131.43 E.01693
G1 X129.07 Y114.634 E.74948
G1 X129.07 Y115.171 E.01693
G1 X145.329 Y131.43 E.72554
G1 X144.793 Y131.43 E.01693
G1 X129.07 Y115.707 E.70159
G1 X129.07 Y116.244 E.01693
G1 X144.256 Y131.43 E.67764
G1 X143.719 Y131.43 E.01693
G1 X129.07 Y116.781 E.6537
G1 X129.07 Y117.317 E.01693
G1 X143.183 Y131.43 E.62975
G1 X142.646 Y131.43 E.01693
G1 X129.07 Y117.854 E.6058
G1 X129.07 Y118.391 E.01693
G1 X142.109 Y131.43 E.58186
G1 X141.573 Y131.43 E.01693
G1 X129.07 Y118.927 E.55791
G1 X129.07 Y119.464 E.01693
M73 P5 R84
G1 X141.036 Y131.43 E.53396
G1 X140.499 Y131.43 E.01693
G1 X129.07 Y120.001 E.51002
G1 X129.07 Y120.537 E.01693
M73 Q5 S85
G1 X139.963 Y131.43 E.48607
G1 X139.426 Y131.43 E.01693
G1 X129.07 Y121.074 E.46212
G1 X129.07 Y121.61 E.01693
G1 X138.89 Y131.43 E.43818
G1 X138.353 Y131.43 E.01693
G1 X129.07 Y122.147 E.41423
G1 X129.07 Y122.684 E.01693
G1 X137.816 Y131.43 E.39028
G1 X137.28 Y131.43 E.01693
G1 X129.07 Y123.22 E.36634
G1 X129.07 Y123.757 E.01693
G1 X136.743 Y131.43 E.34239
G1 X136.206 Y131.43 E.01693
G1 X129.07 Y124.294 E.31844
G1 X129.07 Y124.83 E.01693
G1 X135.67 Y131.43 E.2945
G1 X135.133 Y131.43 E.01693
G1 X129.07 Y125.367 E.27055
G1 X129.07 Y125.904 E.01693
G1 X134.596 Y131.43 E.24661
G1 X134.06 Y131.43 E.01693
G1 X129.07 Y126.44 E.22266
G1 X129.07 Y126.977 E.01693
G1 X133.523 Y131.43 E.19871
G1 X132.983 Y131.427 E.01704
G1 X129.073 Y127.517 E.17446
G1 X129.124 Y128.104 E.0186
G1 X132.396 Y131.376 E.14599
G1 X131.983 Y131.294 E.01326
G1 X131.671 Y131.188 E.01041
G1 X129.312 Y128.829 E.10525
G1 X129.371 Y129.003 E.0058
G1 X129.598 Y129.464 E.01621
G1 X129.884 Y129.891 E.01621
G1 X130.215 Y130.268 E.01583
G1 X131.038 Y131.092 E.03675
M204 S1000
